X:192
T:Mukav te
O:Rumänien
M:2/4
L:1/16
K:Dm
Adf a2a2||"Gm"Pa3g abg2|"A7"z2ef gfef|"Dm"Pe3d efd2|zAde fgab|
"Gm"c'bag abg2|"A7"z2ef gfef|"Dm"Pe3d efd2|z2ef fefg|
"C"e3d edc2|"Bb"z2ff fefg|"Am"e3d efd2|"Dm"z2ef fefg|
"C"e3d edc2|"Bb"z2ff fefg|"Am"e3d efd^c|"Dm"{d^c}d8|{fe}f8|{d'^c'}d'8|
zAB^c defg|"Dm"afga Pf2ed|afga Pf2ed|afga Pf2ed|dAB^c defg|
"E7"_afga Pf2ed|_afga Pf2ed|"A7"_afga Pf2ed|"Dm"dAB^c defg|
"Dm"afga Pf2ed|afga Pf2ed|afga Pf2ed|dAB^c defg|
"Bb7"_afga Pf2ed|_afga Pf2ed|"A7"_afga Pf2ed|"Dm"ddd^c d2ff|
fef2 d'd'd'^c'|d'8-|d'|]
(:musicend:)
(:music:)
